X:1
T:Si grande e il mio gioire
T:Marco Antonio Pordemon
T:Source: Harmonia celeste---Anversa---P.Phalesio & G.Bellero---1583. Editor: André Vierendeels (23/11/13).
T:Si grande e il mio gioire
C:Marco Antonio Pordemon
%%score [ 1 2 3 4 ]
L:1/8
Q:1/4=104
M:4/4
K:F
V:1 treble nm="Canto" snm="C"
V:2 treble nm="Alto" snm="A"
V:3 treble-8 nm="Tenor" snm="T"
V:4 bass nm="Basso" snm="B"
V:1
 z8 | z8 | z8 | z2 d2 d2 c2 | d2 A2 c4 | B4 A2 BA | Bc d4 c2 | d4 A4 | z8 | z8 | z8 | z4 A4 | %12
w: |||Si gran- d'e'il|mio gio- i-|||* re,||||che|
 d2 d2 c2 A2 | B4 A4- | A4 c4 | B4 A4- | A4 G4 | A8 | A4 A4 | B2 F2 GA Bc | d2 cB A2 G2 | %21
w: sol pen- san- d'al-|la mia|_ Don-|* na|_ io|sen-|to, che|mag- gior no'l _ _ _|_ _ _ _ vor-|
 A4 G2 F2 | c2 A2 G2 G2 | ^F4 G2 B2 | d2 c2 d2 B2 | A8 | z8 | z2 d2 c2 c2 | Bc dc BA G2- | %29
w: re- i, che|mag- gior no'l vor-|re- i, ma|se tan- to'il pen-|sier||mi fa gio-|i- * * * * * re|
 GG G2 F4 | F4 F4 | B2 c2 d2 e2 | dc B4 A2 | B2 B2 Bc dB | c4 B2 B2 | d4 c2 B2- | B2 AG A4 | %37
w: _ gio- i- *|re, ma|tan- to'il pen- sier|_ _ _ mi|fa gio- i- * * *|* re, mi|fa gio- i-||
 B4 d4 | c4 B4 | A6 A2 | A2 d2 c2 d2 | B4 A4 | z4 =B4 | =B4 c4 | =B4 c4 | d4 c4 | B2 B2 A4 | A8 | %48
w: re, hor|che sia|poi s'a|piu dol- cez- z'in-|ten- to,|un|dol- ce|fin tro-|vas- se'a|i de- sir|miei,|
 z4 d4 | c2 c2 =B2 B2 | c6 c2 | B2 B2 A4 | A8 | z4 d4 | c2 c2 =B2 B2 | c4 c4 | B4 B4 | A8 | A8 |] %59
w: il|vuo pur dir io|so che|mi mor- re-|i,|il|vuo pur dir io|so che|mi mor-|re-|i.|
V:2
 z8 | z8 | z8 | z2 D2 G2 G2 | F4 E4 | D3 E FD G2- | G2 F2 E4 | D2 G2 F2 F2 | B4 A4 | G4 F4 | z8 | %11
w: |||Si gran- d'e'il|mio gio-|i- * * * *||re, si gran- d'e'il|mio gio-|i- re,||
 G4 F4- | F2 D2 E2 F2 | G2 D2 F4- | F2 F2 G2 A2 | D2 G4 F2 | E4 D4 | E8 | ^F8 | z4 z2 D2 | %20
w: che sol|_ pen- san- d'al-|la mia Don-|* n'io- sen- to|al- la mia|Don- n'io|sen-|to,|che|
 D2 E2 F2 G2 | ^F4 G2 D2 | _E2 D2 B,2 C2 | D4 D2 D2 | D2 F2 F2 E2 | F8 | z8 | z2 F2 F2 F2 | %28
w: mag- gior no'l vor-|re- i, che|mag- gior no'l vor-|re- i, ma|se tan- to'il pen-|sier||mi fa gio-|
 GA BA GF _E2- | E_E E2 C4 | D8 | z8 | z4 F4 | F6 F2 | FG AF G2 F2- | F2 F2 F2 D2 | F8 | D4 F4 | %38
w: i- * * * * * re|_ gio- i- *|re,||mi|fa gio-|i- * * * * re,|_ mi fa gio-|i-|re, hor|
 F4 G4 | F6 E2 | F2 F2 F2 D2- | D2 G4 ^F2 | z4 G4 | G4 G4 | G4 A4 | B4 A4 | G2 G2 E4 | ^F8 | %48
w: che sia|poi s'a|piu dol- cez- z'in-|* ten- to,|un|dol- ce|fin tro-|vas- se'a|i de- sir|miei,|
 z4 D4 | E2 F2 G2 G2 | G4 A4 | F2 G2 E4 | ^F8 | z4 D4 | E2 F2 G2 G2 | G4 A4 | F4 G4 | E8 | ^F8 |] %59
w: il|vuo pur dir io|so che|mi mor- re-|i,|il|vuo pur dir io|so che|mi mor-|re-|i.|
V:3
 z4 d4 | d2 c2 d2 A2 | c3 B A2 d2- | dc BA G4 | A8 | z8 | z8 | z8 | d4 d4- | d2 c2 d2 B2 | %10
w: Si|gran- d'e'il mio gio-|i- * * *||re,||||si gran-|* d'e'il mio gio-|
 A2 BA Bc d2- | d2 c2 d4 | z8 | z4 A4 | d2 d2 c2 A2 | B2 d2 d4 | ^c4 d4- | %17
w: i- * * * * *|* * re,||che|sol pen- san- d'al-|la mia Don-|n'io sen-|
"^-natural""^#" d2 cB c4 | d8 | z2 d2 _e2 B2 |"^b" B2 c2 d2 e2 | d4 B2 B2 | G2 ^F2 G2 G2 | A4 G4 | %24
w: |to,|che mag- gior|no'l vor- re- *|* i, che|mag- gior no'l vor-|re- i,|
 z8 | z2 d2 c2 c2 | Bc dc BA GF | G2 B2 A4 | G2 F2 G2 B2 | c2 B3 A/G/ A2 | B8 | z2 F2 B2 c2 | %32
w: |mi fa gio-|i- * * * * * * *||re, mi fa gio-|i- * * * *|re,|ma se tan-|
"^b" d2 e2 c2 c2 | d8 | z4 z2 B2 | B2 B2 A2 B2 | d2 cB c4 | B4 B4 | A4 G4 | d6 ^c2 | d2 B2 A2 B2 | %41
w: to'il pen- sier mi|fa,|mi|fa gio- i- *||re, hor|che sia|poi s'a|piu dol- cez- z'in-|
 G4 d4 | z4 d4 | d4 _e4 | d4 f4 | f4 f4 | d2 d2 c4 | d4 d4 | c2 c2 B2 B2 | c2 c2 d2 d2 | e6 f2 | %51
w: ten- to,|un|dol- ce|fin tro-|vas- se'a|i de- sir|miei, il|vuo pur dir, il|vuo pur dir io|son che|
 d2 d2 ^c4 | d4 d4 | c2 c2 B2 B2 | c2 c2 d2 d2 | e4 f4 | d4 d2 d2- |"^-natural""^#" d2 cB c4 | %58
w: mi mor- re-|i, il|vuo pur dir, il|vuo pur dir io|so che|mi mor- re-||
 d8 |] %59
w: i.|
V:4
 D,4 G,2 G,2 |"^#" F,2 E,2 D,4 | E,2 F,4 D,2 | G,3 F, E,4 | D,4 z4 | z8 | z8 | z4 D,4 | %8
w: Si gran- d'e'il|mio gio- i-|||re,|||si|
 G,2 G,2 F,2 F,2 | E,4 D,3 E, | F,D, G,4 F,2 | E,4 D,4 | z8 | G,4 F,4- | F,2 D,2 E,2 F,2 | %15
w: gran- d'e'il mio gio-|i- * *||* re,||che sol|_ pen- san- d'al-|
 G,4 D,4 | A,4 B,4 | A,8 | D,8 | z8 | z8 | D,4 _E,2 B,,2 |"^b" C,2 D,2 E,4 | D,4 G,4 | %24
w: la mia|Don- n'io|sen-|to,|||che mag- gior|no'l vor- re-|i, ma|
 B,2 A,2 B,2 G,2 | F,2 D,2 F,2 F,2 |"^b" G,A, B,A, G,F, _E,D, | C,2 B,,2 F,4 | z2 B,,2 _E,4- | %29
w: se tan- to'il pen-|sier mi ga gio-|i- * * * * * * *|* * re,|mi fa|
 E,2 _E,2 F,4 | B,,8 | z8 | z4 F,4 | B,8 | z4 z2 B,,2 | B,,C, D,E, F,2 G,2 | F,8 | B,,8 | z8 | z8 | %40
w: _ gio- i-|re,||mi|fa|gio-|i- * * * * *||re,|||
 z8 | z8 | z4 G,4 | G,4 C,4 | G,4 F,4 | B,4 F,4 | G,2 G,2 A,4 | D,4 D,4 | E,2 F,2 G,2 B,2 | %49
w: ||un|dol- ce|fin tro-|vas- se'a|i de- sir|miei, il|vuo pur dir, il|
 A,2 A,2 G,2 G,2 | C4 A,4 | B,2 G,2 A,4 | D,4 D,4 | E,2 F,2 G,2 B,2 | A,2 A,2 G,2 G,2 | C,4 F,4 | %56
w: vuo pur dir io|son che|mi mor- re-|i, il|vuo pur dir, il|vuo pur dir io|so che|
 B,4 G,4 | A,8 | D,8 |] %59
w: mi mor-|re-|i.-|

